X: 4
T:
P: Allegro
M: 2/4
L: 1/16
K: G
V: 1
|: d2 |\
  B2d2 A2d2 | G2z2 e2z2 | d2g2 c2g2 | B4 z2B2 | cded cBAG | F2A2 F2c2 | Bcdc BAGF |
  E2G2 E2G2 | ABcB AGFE | D2 F4 A2- | A2 c4 e2- | e4 zdcB | ABcB AGFE | D2 F4 A2- |
  A2 c4 a2- | a4 zgfe | d2g2 A2f2 | g4 z2d2 | B2d2 A2d2 | G2z2 B2z2 | A2d2 G2d2 | F4 z2f2 |
  gaba gfed | ^c2e2 c2e2 | fgag fed^c | B2d2 B2d2 | efgf ed^cB | A2 ^c4 e2- |
%
  e2 g4 b2- | b4 zagf | efgf ed^cB | A2 ^c4 e2- | e2 g4 ^c'2- | c'4 z2^c2 | d2G2 A4 |
  D2F2 A2d2 | ^c4 z2c2 | d4 z2d2 | ^c4 z2c2 | d4 z2d2 | ^c4 f4 | e2a2 d2a2 | ^c2z2 B2z2 |
  A4 z2^c2 | B2^d2 e2B2 | ^c2e2 a2c2 | B2^d2 e2B2 |   ^c2e2 a2A2 | B2G2 A4 | d2B2 ^c4 |
  f2d2 g2d2 | a2d2 b2d2 | f2d2 g2d2 | a2d2 b2d2 | ^c2A2 e2G2 | F2A2 d4- | d2^cB AGFE | D6 :|
%
|: A2 |\
  d2A2 e2A2 | f2z2 g2z2 | a2d2 g2^c2 | f2d2 z2D2 | G2D2 A2D2 | B2z2 c2z2 | d2G2 c2F2 | B2G2 z2B2 | cde=f gede | cde=f gede | ^cde=f gede |
  ^cdef gede | f2d2 Ad^cd | f2d2 Ad^cd | f2^d2 Bd^cd | f2^d2 Bd^cd | e2z2 =d2z2 | c2z2 B2z2 | A2z2 G2z2 | F2A2 c2E2 |
  ^D4 E2F2 | G4 z2F2 | E4 ^D4 | E4 z4 | A2^c2 e2a2 | f4 z2f2 | G2B2 d2g2 | e2f2 g2e2 | d2f2 g2d2 | c2f2 g2c2 | c2A2 B2F2 | G4 z2G2 |
  F4 z2F2 | E4 z2E2 | D4 z2d2 | B2d2 A2d2 | G2z2 F2z2 | E2G2 C2c2 | B2z2 A2z2 | G2d2 B2d2 | e2c2 A2^c2 | defg agfe | d2B2 G2B2 |
%
  cdef gfed | c2A2 F2A2 | F2D2 A2D2 | c2D2 A2G2 | FGFE FGAB | c2A2 F2A2 | F2D2 A2D2 | c2D2 A2D2 | F2D2 d4 | B2G2 D2d2 |
  B2G2 DGFG | B2G2 DGFG | B2^G2 EGFG | B2^G2 EGFG | ABcd ecBc | d4 zBAB | cdef gede | fgab c'aga |
  fgab c'aga | b2g2 a2d2 | g2e2 f2B2 | e2c2 d2G2 | c4 z2d2  | e2c2 d4 | g2e2 f4 | b2d2 d'2d2 | a2d2 c'2d2 | b2d2 d'2d2 | a2d2 c'2d2 |
  b2g2 a2e2 | f2d2 g4- | g2fe dcBA | G4 a2f2 | G4 b4 | F4 a4 | G4 b4 | F4 a4 | G4 c4 | z2BA B2G2 | e2c2 d2D2 | G6 :|
V: 2
|: z2 |\
  G4 F4 | E2G2 C2c2 | B4 A4 | G2d2 B2d2 | e2c2 A2^c2 | defg agfe | d2B2 G2B2 |
  cdef gfed | c2A2 F2A2 | F2D2 A2D2 | c2D2 A2G2 | FGFE FGAB | c2A2 F2A2 | F2D2 A2D2 |
  c2D2 A2D2 | F2D2 d4 | B2G2 D2d2 | B2d2 A2d2 | G2z2 F2z2 | B2d2 G2d2 | F2z2 E2z2 | D2A2 F2A2 |
  B2G2 E2^G2 | AB^cd edcB | A2F2 D2F2 | GAB^c dcBA | G2e2 ^c2e2 | ^c2A2 e2A2 |
%
  g2A2 e2d2 | ^cdcB cdef | g2e2 ^c2e2 | ^c2A2 e2A2 | g2A2 e2A2 |a2A2 g4 | f2ed A2^c2 |
  d4 z2f2 | e2^g2 a2e2 | f2A2 D2f2 | e2^g2 a2e2 | f2A2 D2f2 | e2a2 d2a2 | ^c2z2 f2z2 | e2a2 d2a2 |
  ^cded c2A2 | ^G4 z2G2 | A4 z2A2 | ^G4 z2G2 | A4 z2F2 | =G4 ^c2A2 | B4 e2^c2 |
  d4 e4 | f4 g4 | d4 e4 | f4 g4 | z2^cB c2e2 | A4 z2F2 | B2G2 A2^c2 | d6 :|
%
|: z2 |\
  z6 A2 | d2A2 e2A2 | f2z2 e2z2 | d4 z4 | z6 D2 | G2D2 A2D2 | B2z2 A2z2 | G4 g2d2 | e2c2 GcBc | e2c2 GcBc | e2^c2 AcBc |
  e2^c2 AcBc | defg afef | defg afef | ^defg afef | ^defg afef | g2e2 f2B2 | e2c2 d2G2 | c2A2 B2E2 | A4 z2c2 |
  B2c2 B2^A2 | B2^d2 e2A2 | GABG FGAF | E2G2 B2e2 | ^c4 z2c2 | D2F2 A2d2 | B4 z2B2 | c4 z2c2 | B4 z2B2 | A4 z2A2 | G4 z2d2 | B2^c2 d2B2 |
  A2^c2 d2A2 | G2^c2 d2G2 | G2E2 F4 | z6 d2 | B2d2 A2d2 | G2z2 e2z2 | d2g2 c2g2 | B4 z2B2 | cded cBAG | F2A2 F2A2 | Bcdc BAGF |
%
  E2G2 E2G2 | ABcB AGFE | D2 F4 A2- | A2 c4 e2- | e4 zdcB | ABcB AGFE | D2 F4 A2- | A2 c4 a2- | a4 zgfe | d2g2 A2f2 |
  GABc dBAB | GABc dBAB | ^GABc dBAB | ^GABc dBAB | c4 zA^GA | Bcde =fdcd | e4 z^cBc | defg afef |
  defg afef | g2z2 f2z2 | e2z2 d2z2 | c2z2 B2z2 | A4 z2B2 | c4 f2d2 | e4 a2f2 | G4 b4 | F4 a4 | G4 b4 | F4 a4 |
  G4 c4 | z2BA B2G2 | e2c2 d2f2 | g2e2 f4 | b2d2 d'2d2 | a2d2 c'2d2 | b2d2 d'2d2 | a2d2 c'2d2 | b2g2 a2e2 | f2d2 g4- | g2fe dcBA | G6 :|
This file as found on Laura Conrad's site, labelled merely as "frank".
I wonder what its opus number might be, and who transcribed it?

